public/images/pages/home/hearts/few.svg

<svg width="129" height="106" viewBox="0 0 129 106" fill="none" xmlns="http://www.w3.org/2000/svg">
<path d="M68.1156 26.4569C82.7225 5.70104 88.938 6.4231 95.8118 3.59275C99.2487 0.762417 107.841 0.762329 116.433 5.47958C128.585 12.1508 126.744 37.5569 126.744 37.5569L120.893 56.5095L112.362 70.0597C112.362 70.0597 50.9435 74.4559 13.9969 72.569C2.45412 53.4983 -1.83433 25.6745 8.47646 14.3531C17.1612 4.81717 25.4906 6.25756 34.0156 7.05665C55.8017 9.09879 67.8979 29.3374 68.1156 26.4569Z" fill="white"/>
<path d="M62.3904 71.0071C86.5323 61.302 86.5645 68.8243 96.3678 68.8244C100.839 71.0071 113.762 63.9623 113.356 68.8243C112.951 73.6864 111.792 71.0071 111.792 71.0071L110.674 73.2762C110.674 73.2762 92.7895 101.677 60.7994 104.186C26.6248 92.6434 15.001 74.1666 15.001 74.1666C15.001 74.1666 19.663 69.6283 26.6248 68.8243C44.3273 68.8243 52.6924 74.9058 62.3904 71.0071Z" fill="#FF4D4F"/>
<path d="M5.62482 59.6578C10.3354 73.426 18.3384 80.526 28.3327 88.742C38.7521 98.9527 51.4559 106.004 65.0448 105.807C90.291 105.441 124.949 68.3207 128.718 35.2049C128.879 33.7923 126.136 34.2289 125.897 35.6465C120.213 69.3418 89.9022 99.9738 65.0448 103.037C51.5482 103.234 40.7758 95.6579 30.2271 86.6999C20.9131 78.7789 15.0715 74.4471 8.44096 59.1311C8.189 57.7096 5.37286 58.2452 5.62482 59.6578Z" fill="black"/>
<path d="M9.38801 62.1944C-16.187 -14.3857 53.2303 7.33961 67.856 30.5413C80.4298 1.95138 130.633 -13.3646 125.897 36.6677C126.899 37.7011 128.491 34.699 128.491 34.699C132.618 -13.3319 83.8298 -4.25127 67.856 25.493C50.9951 2.4972 -17.1343 -15.4068 5.51251 59.5552C5.94404 60.9836 8.40296 63.2458 9.38801 62.1944Z" fill="black"/>
<path d="M63.9815 91.7153C54.1591 91.4098 47.2365 88.6233 40.5134 76.1726C39.6231 75.7388 38.6827 78.7454 39.5673 79.1772C44.3858 89.5598 52.5291 95.0193 63.4525 94.7522C64.4505 94.7831 64.9795 91.7462 63.9815 91.7153Z" fill="black"/>
</svg>

<svg xmlns="http://www.w3.org/2000/svg" fill="none" viewBox="0 0 129 106">
  <defs/>
  <path fill="#fff" d="M68.116 26.457C82.722 5.7 88.938 6.423 95.812 3.593 99.249.763 107.84.763 116.433 5.48c12.152 6.67 10.311 32.077 10.311 32.077l-5.851 18.953-8.531 13.55s-61.418 4.396-98.365 2.509C2.454 53.499-1.834 25.674 8.477 14.353 17.16 4.817 25.49 6.258 34.015 7.057c21.786 2.042 33.882 22.28 34.1 19.4z"/>
  <path fill="#FF4D4F" d="M62.39 71.007c24.142-9.705 24.174-2.183 33.978-2.183 4.471 2.183 17.394-4.862 16.988 0-.405 4.862-1.564 2.183-1.564 2.183l-1.118 2.27s-17.885 28.4-49.875 30.909c-34.174-11.543-45.798-30.02-45.798-30.02s4.662-4.538 11.624-5.342c17.702 0 26.067 6.082 35.765 2.183z"/>
  <path fill="#000" d="M5.625 59.658c4.71 13.768 12.713 20.868 22.708 29.084 10.42 10.21 23.123 17.262 36.712 17.065 25.246-.366 59.904-37.486 63.673-70.602.161-1.413-2.582-.976-2.821.442-5.684 33.695-35.995 64.327-60.852 67.39-13.497.197-24.27-7.38-34.818-16.337-9.314-7.921-15.155-12.253-21.786-27.569-.252-1.421-3.068-.886-2.816.527z"/>
  <path fill="#000" d="M9.388 62.194C-16.187-14.386 53.23 7.34 67.856 30.541c12.574-28.59 62.777-43.906 58.041 6.127 1.002 1.033 2.594-1.969 2.594-1.969 4.127-48.03-44.661-38.95-60.635-9.206-16.86-22.996-84.99-40.9-62.343 34.062.431 1.429 2.89 3.69 3.875 2.64zM63.981 91.715c-9.822-.305-16.745-3.092-23.468-15.542-.89-.434-1.83 2.572-.946 3.004C44.386 89.56 52.53 95.02 63.453 94.752c.998.031 1.526-3.006.528-3.037z"/>
</svg>
